X: 6797
T: Charlemont House
R: jig
M: 6/8
K: Gmajor
|:(3A/B/c/|d2 e f2 g|ad'b afd|g2 e f2 d|e2 d cBA|
d2 e f2 g|ad'b afd|Agf (3e/f/e/ de|Adc d2:|
|:A|Aag a2 g|efg fed|g2 e f2 d|e2 d cBA|
dd'c' d'2 b|ad'b afd|Agf (3e/f/e/ de|Adc d2:|

